X:238
T: HOFFNUNG HOFFNUNG MILD WIE FRUEHLINGSSCHIMMER
N: B0286
O: Europa, Mitteleuropa, Deutschland, Thueringen; Schlesien
R: Stimmungs - Lied, Freude, Hoffnung
M: 4/4
L: 1/16
K: G
B3A | A2G2G4G2G2B2G2 | F2E2E8
c3B | B2A2A4A2e2d2F2 | A4G4z4
B3A | A2G2G4G2G2B2G2 | F2E2E8
c3B | B2A2A4A2e2d2F2 | A4G4z4
G3B | A6F2A2G2F2E2 | F4G4A4z4
c6c2c2B2A2G2 | e6e2e2d2c2B2
d2c2B2A2A2G2G2F2 | G8z4

